X: 26595
T: Mick O'Connor's
R: reel
M: 4/4
K: Dmajor
|:A,B,DE FDED|B,EED EDB,D|A,B,DE FABc|dBAG FDDD|
A,B,DE FDED|B,EED EDB,E|A,B,DE FABc|dBAG FDDD:|
|:d2fd adfd|edBd edBA|defa defa|e2de fddc|
d2fd adfd|edBd edBA|faab afdf|1 gefd e4:|2 e2de fdd2||

